svgs/regular/face-tired.svg

<svg xmlns="http://www.w3.org/2000/svg" viewBox="0 0 512 512"><!--! Font Awesome Pro 6.0.0-alpha3 by @fontawesome - https://fontawesome.com License - https://fontawesome.com/license (Commercial License) --><path d="M256 272c-45.41 0-100.9 38.25-107.8 93.25c-1.574 11.88 6.902 21.62 15.5 18C186.4 373.5 220 368 256 368s69.63 5.486 92.27 15.24c8.477 3.625 17.07-6 15.5-18C356.9 310.3 301.4 272 256 272zM228 208c0-4.25-2.18-8.125-5.812-10.25l-80.04-48c-4.965-3-11.5-2-15.26 2.5s-3.875 11-.1211 15.5L160.5 208l-33.66 40.25c-3.754 4.5-3.633 11 .1211 15.5c3.512 4.125 9.93 5.75 15.26 2.5l80.04-48C225.8 216.1 228 212.3 228 208zM385.1 152.3c-3.754-4.5-10.29-5.5-15.26-2.5l-80.04 48C286.2 199.9 283.1 203.8 283.1 208s2.18 8.125 5.812 10.25l80.04 48c5.328 3.25 11.75 1.625 15.26-2.5c3.754-4.5 3.875-11 .1211-15.5L351.5 208l33.66-40.25C388.1 163.3 388.8 156.6 385.1 152.3zM256 0C114.6 0 0 114.6 0 256s114.6 256 256 256s256-114.6 256-256S397.4 0 256 0zM256 464c-114.7 0-208-93.31-208-208S141.3 48 256 48s208 93.31 208 208S370.7 464 256 464z"/></svg>

<svg xmlns="http://www.w3.org/2000/svg" viewBox="0 0 512 512"><!-- Font Awesome Pro 6.0.0-alpha2 by @fontawesome - https://fontawesome.com License - https://fontawesome.com/license (Commercial License) --><path d="M385.086 152.25C381.332 147.75 374.793 146.75 369.828 149.75L289.785 197.75C286.152 199.875 283.973 203.75 283.973 208S286.152 216.125 289.785 218.25L369.828 266.25C375.156 269.5 381.574 267.875 385.086 263.75C388.84 259.25 388.961 252.75 385.207 248.25L351.543 208L385.207 167.75C388.961 163.25 388.84 156.625 385.086 152.25ZM256 272C210.59 272 155.129 310.25 148.227 365.25C146.652 377.125 155.129 386.875 163.727 383.25C186.371 373.5 220.035 368 256 368S325.629 373.5 348.273 383.25C356.75 386.875 365.348 377.25 363.773 365.25C356.871 310.25 301.41 272 256 272ZM228.027 208C228.027 203.75 225.848 199.875 222.215 197.75L142.172 149.75C137.207 146.75 130.668 147.75 126.914 152.25S123.039 163.25 126.793 167.75L160.457 208L126.793 248.25C123.039 252.75 123.16 259.25 126.914 263.75C130.426 267.875 136.844 269.5 142.172 266.25L222.215 218.25C225.848 216.125 228.027 212.25 228.027 208ZM256 16C123.451 16 16 123.451 16 256S123.451 496 256 496S496 388.549 496 256S388.549 16 256 16ZM256 448C150.131 448 64 361.869 64 256S150.131 64 256 64S448 150.131 448 256S361.869 448 256 448Z"/></svg>
